X:373
T: Vor meines Liebchens Tr (4-72), S. 92
N: P0643
O: Lothringen
S: PINCK, Louis: Verklingende Weisen Bd 4, Kassel 1939]
R: Liebe, Brautwerbung]
M: 2/4
L: 1/16
K: C
 | G4A2G2 | E6E2 | E2E2F2E2 | D6
c2 | c4B2A2 | G4A2G2 | F4G4 | E4z2
C2 | C4E2G2 | e4d2c2 | d3AA2A2 | A6
c2 | c4B2A2 | G4A2G2 | F4G4 | E4z2
C2 | C4E2G2 | e4d2c2 | d3AA2A2 | A6
c2 | c4B2A2 | G4A2G2 | F4G4 | E4z4

